X:929
T:White Cockade, The
S:Can't remember
Z:Nigel Gatherer
M:4/4
L:1/8
K:D
DE | F2 F2 F2 ED | F2 F2 F2 d2 | A2 F2 GFED  | F2 E2 E2
DE | F2 F2 GFED  | F2 A2 d3  e | fedc  edcB  | A2 F2 F2 ||
FG | A2 F2 d2 F2 | A2 A2 A3  B | A2 F2 d2 cd | e2 E2 E2
DE | F2 F2 GFED  | F2 A2 d3  e | fedc  edcB  | A2 F2 F2 |]
